public/images/case-studies/maikeinc/tech-icon3.svg

<svg width="163" height="45" viewBox="0 0 163 45" fill="none" xmlns="http://www.w3.org/2000/svg">
<path d="M44.5392 14.8904L54.7006 28.7638V14.8904H56.7318V32.1123H54.584L44.4236 18.117V32.1123H42.3911V14.8904H44.5392Z" fill="#CCCCCC"/>
<path d="M73.221 31.4378C71.8823 31.9685 70.4378 32.2329 68.8896 32.2329C62.8755 32.2329 59.8672 29.2425 59.8672 23.2607C59.8672 17.6002 62.7702 14.7695 68.5754 14.7695C70.241 14.7695 71.7896 15.0111 73.2207 15.4934V17.4202C71.7894 16.858 70.3177 16.5766 68.8075 16.5766C64.2797 16.5766 62.0162 18.8054 62.0162 23.2607C62.0162 28.0375 64.2443 30.4271 68.7046 30.4271C69.4159 30.4271 70.2054 30.3303 71.0731 30.1369V24.2845H73.221V31.4378Z" fill="#CCCCCC"/>
<path d="M76.647 25.4644V14.8911H78.7937V25.4642C78.7937 28.772 80.3812 30.4278 83.5556 30.4278C86.729 30.4278 88.3166 28.7718 88.3166 25.4642V14.8911H90.4644V25.4642C90.4644 29.978 88.1616 32.2336 83.5556 32.2336C78.9498 32.2339 76.647 29.978 76.647 25.4644Z" fill="#CCCCCC"/>
<path d="M105.13 30.3064V32.1123H94.2959V14.8904H96.4428V30.3064H105.13Z" fill="#CCCCCC"/>
<path d="M114.257 12.6183L122.513 32.1123H120.133L117.984 26.6919H112.494L113.085 24.8875H117.266L114.165 17.0823L108.231 32.1123H106.002L114.257 12.6183Z" fill="#CCCCCC"/>
<path d="M124.777 32.1123V14.8904H131.86C135.019 14.8904 136.598 16.2679 136.598 19.0209C136.598 21.2617 135.055 22.9198 131.965 23.9945L137.667 32.1123H134.833L129.551 24.3688V22.9128C132.724 22.3896 134.31 21.1252 134.31 19.1187C134.31 17.5296 133.428 16.7334 131.664 16.7334H126.925V32.113H124.777L124.777 32.1123Z" fill="#CCCCCC"/>
<path d="M145.714 14.8904V27.1508C145.714 30.4584 143.837 32.112 140.082 32.112V30.3059C142.404 30.3059 143.566 29.2529 143.566 27.1506V14.8904H145.714Z" fill="#CCCCCC"/>
<path d="M149.546 31.5099V29.4623C151.289 30.1044 153.169 30.4267 155.19 30.4267C158.046 30.4267 159.475 29.3426 159.475 27.1731C159.475 25.3293 158.421 24.4038 156.316 24.4038H154.179C150.704 24.4038 148.964 22.8392 148.964 19.7077C148.964 16.4164 151.191 14.7689 155.644 14.7689C157.578 14.7689 159.378 15.0117 161.043 15.4928V17.5402C159.377 16.8973 157.578 16.576 155.644 16.576C152.624 16.576 151.115 17.6202 151.115 19.7077C151.115 21.5535 152.136 22.4771 154.179 22.4771H156.316C159.853 22.4771 161.623 24.0438 161.623 27.1731C161.623 30.5464 159.479 32.2328 155.189 32.2328C153.169 32.2328 151.289 31.991 149.546 31.5099Z" fill="#CCCCCC"/>
<path d="M45.0814 14.3287L55.2418 28.2023V14.3287H57.2743V31.5506H55.1262L44.9651 17.5554V31.5506H42.9336V14.3287H45.0814Z" fill="black"/>
<path d="M73.7637 30.8759C72.425 31.4067 70.9812 31.6708 69.4326 31.6708C63.418 31.6708 60.4102 28.6806 60.4102 22.6988C60.4102 17.0383 63.3132 14.2074 69.1195 14.2074C70.7838 14.2074 72.3326 14.4492 73.7637 14.9313V16.8578C72.3324 16.2956 70.8607 16.0142 69.3515 16.0142C64.8233 16.0142 62.5594 18.243 62.5594 22.6983C62.5594 27.4754 64.7884 29.865 69.2476 29.865C69.9591 29.865 70.7495 29.7687 71.617 29.5748V23.7221H73.764L73.7637 30.8759Z" fill="black"/>
<path d="M77.1895 24.902V14.3275H79.3361V24.9018C79.3361 28.2094 80.9237 29.8642 84.0983 29.8642C87.2715 29.8642 88.859 28.2092 88.859 24.9018V14.3275H91.0069V24.9018C91.0069 29.4154 88.704 31.67 84.0983 31.67C79.4923 31.67 77.1895 29.4159 77.1895 24.902Z" fill="black"/>
<path d="M105.674 29.7435V31.5494H94.8403V14.3275H96.9872V29.7435H105.674Z" fill="black"/>
<path d="M114.8 12.0547L123.056 31.5496H120.675L118.527 26.1297H113.035L113.628 24.3239H117.807L114.708 16.5187L108.774 31.5496H106.544L114.8 12.0547Z" fill="black"/>
<path d="M125.321 31.5506V14.3287H132.405C135.564 14.3287 137.141 15.7052 137.141 18.4595C137.141 20.699 135.599 22.3582 132.509 23.4326L138.211 31.5506H135.376L130.094 23.8069V22.3494C133.268 21.8262 134.855 20.5631 134.855 18.5553C134.855 16.9662 133.972 16.1713 132.207 16.1713H127.469V31.5506H125.321Z" fill="black"/>
<path d="M146.259 14.3275V26.5882C146.259 29.8968 144.381 31.5494 140.626 31.5494V29.7435C142.949 29.7435 144.11 28.6903 144.11 26.588V14.3275H146.259Z" fill="#A6120D"/>
<path d="M150.089 30.9474V28.9003C151.832 29.5422 153.712 29.8647 155.733 29.8647C158.59 29.8647 160.018 28.7801 160.018 26.6118C160.018 24.7671 158.965 23.8425 156.859 23.8425H154.722C151.247 23.8425 149.508 22.277 149.508 19.1452C149.508 15.8539 151.734 14.2067 156.187 14.2067C158.121 14.2067 159.921 14.4494 161.586 14.9306V16.9782C159.921 16.335 158.121 16.0137 156.187 16.0137C153.167 16.0137 151.658 17.058 151.658 19.1455C151.658 20.9912 152.678 21.9148 154.722 21.9148H156.859C160.396 21.9148 162.166 23.4808 162.166 26.6118C162.166 29.9844 160.022 31.6706 155.733 31.6706C153.713 31.6703 151.832 31.4285 150.089 30.9474Z" fill="#A6120D"/>
<path d="M130.248 40.742L129.459 38.2548H128.898L129.987 41.3975C129.961 41.4659 129.92 41.57 129.863 41.7106C129.807 41.8512 129.773 41.9285 129.765 41.9438C129.735 41.9896 129.699 42.028 129.656 42.0594C129.613 42.0907 129.546 42.1063 129.455 42.1063C129.425 42.1063 129.391 42.1032 129.353 42.0978C129.314 42.0922 129.252 42.0769 129.166 42.0521V42.5198C129.221 42.5352 129.268 42.5451 129.305 42.5512C129.342 42.5566 129.396 42.5595 129.466 42.5595C129.752 42.5595 129.953 42.4741 130.07 42.3031C130.187 42.1321 130.388 41.6575 130.674 40.8789C130.795 40.5483 130.945 40.1202 131.125 39.5958C131.364 38.8979 131.52 38.4511 131.589 38.255H131.042L130.248 40.742ZM127.319 40.9514C126.962 40.9514 126.719 40.7836 126.588 40.4469C126.518 40.2686 126.484 40.0358 126.484 39.7488C126.484 39.3518 126.569 39.0667 126.739 38.8933C126.909 38.7209 127.107 38.6343 127.333 38.6343C127.592 38.6343 127.788 38.7401 127.922 38.9507C128.055 39.1616 128.122 39.4277 128.122 39.7488C128.122 40.11 128.056 40.4007 127.922 40.6211C127.788 40.8412 127.587 40.9514 127.319 40.9514ZM126.03 41.3077H126.486V40.9176C126.591 41.0643 126.689 41.1706 126.781 41.237C126.936 41.3491 127.125 41.405 127.35 41.405C127.751 41.405 128.064 41.2455 128.291 40.9259C128.517 40.6065 128.63 40.2059 128.63 39.7233C128.63 39.2139 128.516 38.8286 128.286 38.5674C128.057 38.3061 127.759 38.1755 127.391 38.1755C127.214 38.1755 127.051 38.2139 126.9 38.291C126.749 38.3679 126.62 38.4796 126.511 38.626V37.1067H126.03V41.3077Z" fill="black"/>
<path d="M4.01581 34.4947L20.3651 43.8143L36.7985 34.3685L39.862 8.01744L20.3444 1.06433L0.951172 8.14271L4.01581 34.4947Z" fill="#B3B3B3"/>
<path d="M20.2988 41.5881L35.0723 33.1082L37.9272 9.54084L20.2988 3.30603V41.5881Z" fill="#A6120D"/>
<path d="M20.2985 41.5878V3.30493L3.12695 9.65285L5.75301 33.2204L20.2985 41.5878Z" fill="#DD1B16"/>
<path d="M25.1515 23.6856L20.2991 26.0389H15.1846L12.7804 32.2757L8.30859 32.3616L20.2991 4.69629L25.1515 23.6856ZM24.6825 22.5007L20.3312 13.5666L16.7621 22.347H20.2988L24.6825 22.5007Z" fill="#F2F2F2"/>
<path d="M24.3809 22.3538H20.308L20.2988 26.0333L25.9307 26.0389L28.5628 32.3625L32.8416 32.4447L20.2988 4.69629L20.331 13.5666L24.3809 22.3538Z" fill="#B3B3B3"/>
<path d="M145.491 39.1C145.491 40.454 144.469 41.4518 143.216 41.4518C141.963 41.4518 140.941 40.454 140.941 39.1C140.941 37.7365 141.963 36.7483 143.216 36.7483C144.469 36.7483 145.491 37.7365 145.491 39.1ZM144.495 39.1C144.495 38.2539 143.903 37.675 143.216 37.675C142.529 37.675 141.937 38.2539 141.937 39.1C141.937 39.9377 142.529 40.5251 143.216 40.5251C143.903 40.5251 144.495 39.9366 144.495 39.1Z" fill="black"/>
<path d="M150.397 39.1C150.397 40.454 149.376 41.4518 148.122 41.4518C146.869 41.4518 145.848 40.454 145.848 39.1C145.848 37.7375 146.869 36.7483 148.122 36.7483C149.376 36.7483 150.397 37.7365 150.397 39.1ZM149.401 39.1C149.401 38.2539 148.809 37.675 148.122 37.675C147.435 37.675 146.843 38.2539 146.843 39.1C146.843 39.9377 147.435 40.5251 148.122 40.5251C148.809 40.5251 149.401 39.9366 149.401 39.1Z" fill="black"/>
<path d="M155.1 36.8904V41.1125C155.1 42.8492 154.113 43.5586 152.945 43.5586C151.846 43.5586 151.185 42.7962 150.935 42.1728L151.802 41.7985C151.957 42.1812 152.335 42.6329 152.944 42.6329C153.692 42.6329 154.155 42.1547 154.155 41.2545V40.9163H154.12C153.897 41.2015 153.468 41.4507 152.926 41.4507C151.792 41.4507 150.753 40.4265 150.753 39.1085C150.753 37.781 151.792 36.7483 152.926 36.7483C153.467 36.7483 153.896 36.9975 154.12 37.2742H154.155V36.8914H155.1V36.8904ZM154.225 39.1085C154.225 38.2804 153.693 37.675 153.015 37.675C152.328 37.675 151.752 38.2804 151.752 39.1085C151.752 39.9281 152.328 40.5251 153.015 40.5251C153.693 40.5251 154.225 39.9281 154.225 39.1085Z" fill="black"/>
<path d="M156.659 34.4158V41.3077H155.688V34.4158H156.659Z" fill="black"/>
<path d="M160.444 39.8731L161.217 40.4075C160.967 40.7903 160.366 41.4498 159.327 41.4498C158.039 41.4498 157.077 40.4171 157.077 39.0981C157.077 37.6995 158.047 36.7463 159.216 36.7463C160.393 36.7463 160.968 37.7176 161.156 38.2424L161.259 38.5096L158.228 39.8117C158.46 40.2835 158.821 40.5242 159.327 40.5242C159.834 40.5242 160.186 40.2655 160.444 39.8731ZM158.065 39.027L160.091 38.1544C159.98 37.8607 159.644 37.6561 159.25 37.6561C158.744 37.6561 158.039 38.1194 158.065 39.027Z" fill="black"/>
<path d="M137.264 38.4878V37.4901H140.506C140.538 37.664 140.554 37.8697 140.554 38.0923C140.554 38.8409 140.357 39.7665 139.721 40.426C139.102 41.094 138.312 41.4503 137.265 41.4503C135.325 41.4503 133.693 39.8111 133.693 37.7986C133.693 35.7862 135.325 34.147 137.265 34.147C138.339 34.147 139.103 34.5838 139.678 35.1532L138.999 35.8572C138.587 35.4564 138.029 35.1447 137.264 35.1447C135.847 35.1447 134.739 36.3291 134.739 37.7986C134.739 39.2682 135.847 40.4526 137.264 40.4526C138.183 40.4526 138.707 40.0698 139.042 39.722C139.314 39.44 139.493 39.0371 139.564 38.4868L137.264 38.4877V38.4878Z" fill="black"/>
</svg>

<svg xmlns="http://www.w3.org/2000/svg" width="163" height="45" fill="none" xmlns:v="https://vecta.io/nano"><path d="M44.539 14.89L54.7 28.763V14.89h2.031v17.222h-2.148l-10.16-13.995v13.995h-2.032V14.89h2.148zm28.682 16.548c-1.339.531-2.783.795-4.331.795-6.014 0-9.022-2.99-9.022-8.972 0-5.66 2.903-8.491 8.708-8.491 1.666 0 3.214.242 4.645.724v1.927c-1.431-.562-2.903-.844-4.413-.844-4.528 0-6.791 2.229-6.791 6.684 0 4.777 2.228 7.166 6.688 7.166.711 0 1.501-.097 2.368-.29v-5.852h2.148v7.153zm3.426-5.974V14.891h2.147v10.573c0 3.308 1.588 4.964 4.762 4.964s4.761-1.656 4.761-4.964V14.891h2.148v10.573c0 4.514-2.303 6.769-6.909 6.769s-6.909-2.256-6.909-6.769zm28.483 4.842v1.806H94.296V14.89h2.147v15.416h8.687zm9.127-17.688l8.256 19.494h-2.38l-2.149-5.42h-5.49l.591-1.804h4.181l-3.101-7.805-5.934 15.03h-2.229l8.255-19.494zm10.52 19.494V14.89h7.083c3.159 0 4.738 1.378 4.738 4.131 0 2.241-1.543 3.899-4.633 4.974l5.702 8.118h-2.834l-5.282-7.743v-1.456c3.173-.523 4.759-1.788 4.759-3.794 0-1.589-.882-2.385-2.646-2.385h-4.739v15.38h-2.148v-.001zm20.937-17.222v12.26c0 3.308-1.877 4.961-5.632 4.961v-1.806c2.322 0 3.484-1.053 3.484-3.155V14.89h2.148zm3.832 16.62v-2.048c1.743.642 3.623.964 5.644.964 2.856 0 4.285-1.084 4.285-3.254 0-1.844-1.054-2.769-3.159-2.769h-2.137c-3.475 0-5.215-1.565-5.215-4.696 0-3.291 2.227-4.939 6.68-4.939 1.934 0 3.734.243 5.399.724v2.047c-1.666-.643-3.465-.964-5.399-.964-3.02 0-4.529 1.044-4.529 3.132 0 1.846 1.021 2.769 3.064 2.769h2.137c3.537 0 5.307 1.567 5.307 4.696 0 3.373-2.144 5.06-6.434 5.06-2.02 0-3.9-.242-5.643-.723z" fill="#ccc"/><path d="M45.081 14.329l10.16 13.874V14.329h2.032v17.222h-2.148l-10.16-13.996V31.55h-2.032V14.329h2.148zm28.683 16.547c-1.339.531-2.782.795-4.331.795-6.015 0-9.022-2.99-9.022-8.972 0-5.66 2.903-8.491 8.709-8.491 1.664 0 3.213.242 4.644.724v1.927c-1.431-.562-2.903-.844-4.412-.844-4.528 0-6.792 2.229-6.792 6.684 0 4.777 2.229 7.167 6.688 7.167.712 0 1.502-.096 2.369-.29v-5.853h2.147v7.154zm3.426-5.974V14.328h2.147v10.574c0 3.308 1.588 4.962 4.762 4.962s4.761-1.655 4.761-4.962V14.328h2.148v10.574c0 4.514-2.303 6.768-6.909 6.768s-6.909-2.254-6.909-6.768zm28.484 4.842v1.806H94.84V14.328h2.147v15.416h8.687zm9.126-17.689l8.256 19.495h-2.381l-2.148-5.42h-5.492l.593-1.806h4.179l-3.099-7.805-5.934 15.031h-2.23l8.256-19.495zm10.521 19.496V14.329h7.084c3.159 0 4.736 1.377 4.736 4.131 0 2.24-1.542 3.899-4.632 4.973l5.702 8.118h-2.835l-5.282-7.744V22.35c3.174-.523 4.761-1.786 4.761-3.794 0-1.589-.883-2.384-2.648-2.384h-4.738v15.379h-2.148z" fill="#000"/><path d="M146.259 14.328v12.261c0 3.309-1.878 4.961-5.633 4.961v-1.806c2.323 0 3.484-1.053 3.484-3.155v-12.26h2.149zm3.83 16.619V28.9c1.743.642 3.623.964 5.644.964 2.857 0 4.285-1.085 4.285-3.253 0-1.845-1.053-2.769-3.159-2.769h-2.137c-3.475 0-5.214-1.565-5.214-4.697 0-3.291 2.226-4.938 6.679-4.938 1.934 0 3.734.243 5.399.724v2.048c-1.665-.643-3.465-.965-5.399-.965-3.02 0-4.529 1.044-4.529 3.132 0 1.846 1.02 2.769 3.064 2.769h2.137c3.537 0 5.307 1.566 5.307 4.697 0 3.373-2.144 5.059-6.433 5.059-2.02 0-3.901-.242-5.644-.723z" fill="#a6120d"/><path d="M130.248 40.742l-.789-2.487h-.561l1.089 3.143-.124.313-.098.233a.44.44 0 0 1-.109.116c-.043.031-.11.047-.201.047a.74.74 0 0 1-.102-.008c-.039-.006-.101-.021-.187-.046v.468c.055.015.102.025.139.031s.091.008.161.008c.286 0 .487-.085.604-.256s.318-.646.604-1.424l.451-1.283.464-1.341h-.547l-.794 2.487zm-2.929.209a.72.72 0 0 1-.731-.505c-.07-.178-.104-.411-.104-.698 0-.397.085-.682.255-.855a.81.81 0 0 1 .594-.259c.259 0 .455.106.589.316s.2.477.2.798c0 .361-.066.652-.2.872a.66.66 0 0 1-.603.33zm-1.289.356h.456v-.39c.105.147.203.253.295.319.155.112.344.168.569.168a1.09 1.09 0 0 0 .941-.479c.226-.319.339-.72.339-1.203 0-.509-.114-.895-.344-1.156s-.527-.392-.895-.392a1.06 1.06 0 0 0-.491.115 1.11 1.11 0 0 0-.389.335v-1.519h-.481v4.201z" fill="#000"/><path d="M4.016 34.495l16.349 9.32 16.433-9.446 3.064-26.351-19.518-6.953L.951 8.143l3.065 26.352z" fill="#b3b3b3"/><path d="M20.299 41.588l14.773-8.48 2.855-23.567-17.628-6.235v38.282z" fill="#a6120d"/><path d="M20.299 41.588V3.305L3.127 9.653 5.753 33.22l14.545 8.367z" fill="#dd1b16"/><path d="M25.152 23.686l-4.852 2.353h-5.114l-2.404 6.237-4.472.086L20.299 4.696l4.852 18.989zm-.469-1.185l-4.351-8.934-3.569 8.78h3.537l4.384.154z" fill="#f2f2f2"/><path d="M24.381 22.354h-4.073l-.009 3.68 5.632.006 2.632 6.324 4.279.082L20.299 4.696l.032 8.87 4.05 8.787z" fill="#b3b3b3"/><path d="M145.491 39.1c0 1.354-1.022 2.352-2.275 2.352s-2.275-.998-2.275-2.352c0-1.364 1.022-2.352 2.275-2.352s2.275.988 2.275 2.352zm-.996 0c0-.846-.592-1.425-1.279-1.425s-1.279.579-1.279 1.425c0 .838.592 1.425 1.279 1.425s1.279-.589 1.279-1.425zm5.902 0c0 1.354-1.021 2.352-2.275 2.352s-2.274-.998-2.274-2.352c0-1.363 1.021-2.352 2.274-2.352s2.275.988 2.275 2.352zm-.996 0c0-.846-.592-1.425-1.279-1.425s-1.279.579-1.279 1.425c0 .838.592 1.425 1.279 1.425s1.279-.589 1.279-1.425zm5.699-2.21v4.222c0 1.737-.987 2.446-2.155 2.446-1.099 0-1.76-.762-2.01-1.386l.867-.374c.155.383.533.834 1.142.834.748 0 1.211-.478 1.211-1.378v-.338h-.035c-.223.285-.652.534-1.194.534-1.134 0-2.173-1.024-2.173-2.342 0-1.328 1.039-2.36 2.173-2.36.541 0 .97.249 1.194.526h.035v-.383h.945v-.001zm-.875 2.218c0-.828-.532-1.434-1.21-1.434-.687 0-1.263.605-1.263 1.434 0 .82.576 1.417 1.263 1.417.678 0 1.21-.597 1.21-1.417zm2.434-4.692v6.892h-.971v-6.892h.971zm3.785 5.457l.773.534c-.25.383-.851 1.042-1.89 1.042-1.288 0-2.25-1.033-2.25-2.352 0-1.399.97-2.352 2.139-2.352 1.177 0 1.752.971 1.94 1.496l.103.267-3.031 1.302c.232.472.593.712 1.099.712s.859-.259 1.117-.651zm-2.379-.846l2.026-.873c-.111-.294-.447-.498-.841-.498-.506 0-1.211.463-1.185 1.371zm-20.801-.539v-.998h3.242a3.4 3.4 0 0 1 .048.602c0 .749-.197 1.674-.833 2.334-.619.668-1.409 1.024-2.456 1.024-1.94 0-3.572-1.639-3.572-3.652s1.632-3.652 3.572-3.652c1.074 0 1.838.437 2.413 1.006l-.679.704c-.412-.401-.97-.712-1.735-.712-1.417 0-2.525 1.184-2.525 2.654s1.108 2.654 2.525 2.654c.919 0 1.443-.383 1.778-.731.272-.282.451-.685.522-1.235l-2.3.001h0z" fill="#000"/></svg>
